24x24/panel/scc-error.svg

<svg height="24" width="24" xmlns="http://www.w3.org/2000/svg"><path d="m7.025 5v.002c-2.49 0-4.36 2.001-4.49 4.48l-.499 8.462c-.315 1.85 1.483 3.017 2.994.994.943-1.28 2.97-3.938 2.97-3.938l8 .041 2.987 4.022c1.5 2.012 3.187.358 2.997-1.004l-.497-8.475c.001-.034.01-.067.01-.101a4.477 4.477 0 0 0 -4.49-4.483zm1.974 1h1.414a1 1 0 0 1 .707.293l.88.879.878-.879a1 1 0 0 1 .707-.293h1.415a1 1 0 0 1 1 1v1.414a1 1 0 0 1 -.293.707l-.879.88.88.878a1 1 0 0 1 .292.707v1.414a1 1 0 0 1 -1 1h-1.414a1 1 0 0 1 -.707-.293l-.879-.879-.879.88a1 1 0 0 1 -.707.292h-1.414a1 1 0 0 1 -1-1v-1.414a1 1 0 0 1 .293-.707l.88-.879-.88-.879a1 1 0 0 1 -.293-.707v-1.414c-.238-.552.072-1 1-1z" fill="#8b9cbe" opacity=".3"/><path d="m9 7v1.414l1.584 1.586-1.584 1.586v1.414h1.414l1.586-1.586 1.585 1.586h1.415v-1.414l-1.587-1.586 1.587-1.586v-1.414h-1.414l-1.586 1.586-1.587-1.586z" fill="#f44336"/></svg>

<svg xmlns="http://www.w3.org/2000/svg" width="24" height="24"><defs><style id="current-color-scheme" type="text/css"></style></defs><path style="opacity:.3;fill:currentColor;color:#8b9cbe" d="M7.025 5v.002c-2.49 0-4.36 2.001-4.49 4.48l-.499 8.462c-.315 1.85 1.483 3.017 2.994.994C5.973 17.658 8 15 8 15l8 .041 2.987 4.022c1.5 2.012 3.187.358 2.997-1.004l-.497-8.475c.001-.034.01-.067.01-.101A4.477 4.477 0 0 0 17.007 5zm1.974 1h1.414a1 1 0 0 1 .707.293l.88.879.878-.879A1 1 0 0 1 13.585 6H15a1 1 0 0 1 1 1v1.414a1 1 0 0 1-.293.707l-.879.88.88.878a1 1 0 0 1 .292.707V13a1 1 0 0 1-1 1h-1.414a1 1 0 0 1-.707-.293L12 12.828l-.879.88a1 1 0 0 1-.707.292H9a1 1 0 0 1-1-1v-1.414a1 1 0 0 1 .293-.707l.88-.879-.88-.879A1 1 0 0 1 8 8.414V7c-.238-.552.072-1 1-1z"/><path style="fill:currentColor;color:#f44336" d="M9 7v1.414L10.584 10 9 11.586V13h1.414L12 11.414 13.585 13H15v-1.414L13.413 10 15 8.414V7h-1.414L12 8.586 10.413 7z"/></svg>
